src/pos-icons/microsoft-edge-legacy.svg

<svg height="24" viewBox="0 0 24 24" width="24" xmlns="http://www.w3.org/2000/svg"><path d="m2.73675 10.8077c1.09255-12.16879 19.77895-12.16879 18.46035 2.7502h-12.58318c0 4.2948 5.80178 5.6511 10.92548 2.7502v4.2195c-6.2916 3.353-14.5422.9042-14.5422-6.4423 0-5.50054 4.97299-7.2711 4.97299-7.2711s-1.39395 1.77069-1.43162 3.24h7.15813c0-7.12044-9.79533-4.48325-12.95995.7535z"/></svg>

<?xml version="1.0" encoding="UTF-8"?><!DOCTYPE svg PUBLIC "-//W3C//DTD SVG 1.1//EN" "http://www.w3.org/Graphics/SVG/1.1/DTD/svg11.dtd"><svg xmlns="http://www.w3.org/2000/svg" xmlns:xlink="http://www.w3.org/1999/xlink" version="1.1" id="mdi-microsoft-edge-legacy" width="24" height="24" viewBox="0 0 24 24"><path d="M 2.73675,10.8077C 3.8293,-1.36109 22.5157,-1.36109 21.1971,13.5579L 8.61392,13.5579C 8.61392,17.8527 14.4157,19.209 19.5394,16.3081L 19.5394,20.5276C 13.2478,23.8806 4.9972,21.4318 4.9972,14.0853C 4.9972,8.58476 9.97019,6.8142 9.97019,6.8142C 9.97019,6.8142 8.57624,8.58489 8.53857,10.0542L 15.6967,10.0542C 15.6967,2.93376 5.90137,5.57095 2.73675,10.8077 Z" /></svg>
